findly-builder/apps/searchassist/src/assets/icons/content/addfaq.svg

<svg width="36" height="45" viewBox="0 0 36 45" fill="none" xmlns="http://www.w3.org/2000/svg">
<path d="M31.5 14.625V42.7501C31.5 43.9932 30.4932 45.0001 29.25 45.0001H2.25C1.00688 45.0001 0 43.9932 0 42.7501V6.75C0 5.50688 1.00688 4.5 2.25 4.5H21.375L31.5 14.625Z" fill="#7027E5"/>
<path opacity="0.05" d="M2.25 4.5H31.5V42.7501H6.39113C4.104 42.7501 2.25 40.8961 2.25 38.6089V4.5Z" fill="black"/>
<path opacity="0.07" d="M3.375 4.5H25.8087C28.9519 4.5 31.5 7.04813 31.5 10.1914V41.6251H6.56888C4.80488 41.6251 3.375 40.1952 3.375 38.4312V4.5Z" fill="black"/>
<path d="M36 11.25V38.2501C36 39.4932 34.9932 40.5001 33.75 40.5001H6.75C5.50688 40.5001 4.5 39.4932 4.5 38.2501V2.25C4.5 1.00688 5.50688 0 6.75 0H24.75L36 11.25Z" fill="#B893F2"/>
<path d="M24.75 0V9.00001C24.75 10.2431 25.7569 11.25 27 11.25H36L24.75 0Z" fill="#7027E5"/>
<path d="M18.1867 26.7176C18.1124 26.5241 17.9527 25.9503 17.9527 25.3822C17.9527 22.149 21.2816 22.0252 21.2816 19.6267C21.2816 18.1169 19.7898 18.0236 19.5232 18.0236C17.8289 18.0236 16.5059 18.9922 15.9502 19.4816V16.1302C16.5217 15.7893 17.8289 15.1064 19.9136 15.1064C24.7398 15.1064 24.8006 18.4241 24.8006 19.1362C24.8006 22.9657 20.8485 23.2503 20.8485 25.704C20.8485 26.2158 21.0341 26.5905 21.1151 26.7165H18.1867V26.7176ZM19.8112 31.9815C18.8921 31.9815 17.9212 31.4077 17.9212 30.2951C17.9212 29.1825 18.9303 28.629 19.8112 28.629C20.6921 28.629 21.6708 29.1228 21.6708 30.2951C21.6708 31.4673 20.7303 31.9815 19.8112 31.9815Z" fill="#F1E9FB"/>
</svg>

<svg width="36" height="45" fill="none" xmlns="http://www.w3.org/2000/svg"><path d="M31.5 14.625V42.75A2.25 2.25 0 0 1 29.25 45h-27A2.25 2.25 0 0 1 0 42.75v-36A2.25 2.25 0 0 1 2.25 4.5h19.125L31.5 14.625Z" fill="#7027E5"/><path opacity=".05" d="M2.25 4.5H31.5v38.25H6.391a4.141 4.141 0 0 1-4.141-4.14V4.5Z" fill="#000"/><path opacity=".07" d="M3.375 4.5h22.434a5.691 5.691 0 0 1 5.691 5.691v31.434H6.569a3.194 3.194 0 0 1-3.194-3.194V4.5Z" fill="#000"/><path d="M36 11.25v27a2.25 2.25 0 0 1-2.25 2.25h-27a2.25 2.25 0 0 1-2.25-2.25v-36A2.25 2.25 0 0 1 6.75 0h18L36 11.25Z" fill="#B893F2"/><path d="M24.75 0v9A2.25 2.25 0 0 0 27 11.25h9L24.75 0Z" fill="#7027E5"/><path d="M18.187 26.718a4.3 4.3 0 0 1-.234-1.336c0-3.233 3.329-3.357 3.329-5.755 0-1.51-1.492-1.603-1.759-1.603-1.694 0-3.017.968-3.573 1.458V16.13c.572-.34 1.879-1.024 3.964-1.024 4.826 0 4.887 3.318 4.887 4.03 0 3.83-3.952 4.114-3.952 6.568 0 .512.185.886.266 1.012h-2.928v.002Zm1.624 5.264c-.919 0-1.89-.574-1.89-1.687s1.01-1.666 1.89-1.666c.881 0 1.86.494 1.86 1.666s-.94 1.686-1.86 1.686Z" fill="#F1E9FB"/></svg>
